src/assets/footer/twitter (1).svg

<svg fill="none" height="37" viewBox="0 0 36 37" width="36" xmlns="http://www.w3.org/2000/svg"><circle cx="18" cy="18.7695" r="17.25" stroke="#000" stroke-opacity=".1" stroke-width="1.5"/><path clip-rule="evenodd" d="m22.0412 11.4053c1.0972 0 2.1526.4336 2.9291 1.2117.7772.7765 1.2117 1.8237 1.2117 2.9201v6.4636c0 2.2828-1.8573 4.1318-4.1408 4.1318h-8.0828c-2.2836 0-4.14004-1.849-4.14004-4.1318v-6.4636c0-2.2827 1.84824-4.1318 4.14004-4.1318zm1.3018 5.3512.0655-.0655c.1955-.2373.1955-.5809-.009-.8182-.1137-.1219-.27-.1963-.4328-.2127-.1718-.009-.3355.0491-.459.1636l-3.6892 2.9455c-.4745.3935-1.1545.3935-1.6364 0l-3.6818-2.9455c-.2544-.1882-.6063-.1636-.8182.0573-.2209.2209-.2454.5727-.0581.8182l.1072.1063 3.7228 2.9046c.4581.36 1.0137.5564 1.5954.5564.5801 0 1.1455-.1964 1.6028-.5564z" fill="#000" fill-opacity=".5" fill-rule="evenodd"/></svg>

<svg width="36" height="37" viewBox="0 0 36 37" fill="none" xmlns="http://www.w3.org/2000/svg">
<circle cx="18" cy="18.7695" r="17.25" stroke="black" stroke-opacity="0.1" stroke-width="1.5"/>
<path fill-rule="evenodd" clip-rule="evenodd" d="M22.0412 11.4053C23.1384 11.4053 24.1938 11.8389 24.9703 12.617C25.7475 13.3935 26.182 14.4407 26.182 15.5371V22.0007C26.182 24.2835 24.3247 26.1325 22.0412 26.1325H13.9584C11.6748 26.1325 9.81836 24.2835 9.81836 22.0007V15.5371C9.81836 13.2544 11.6666 11.4053 13.9584 11.4053H22.0412ZM23.343 16.7565L23.4085 16.691C23.604 16.4537 23.604 16.1101 23.3995 15.8728C23.2858 15.7509 23.1295 15.6765 22.9667 15.6601C22.7949 15.6511 22.6312 15.7092 22.5077 15.8237L18.8185 18.7692C18.344 19.1627 17.664 19.1627 17.1821 18.7692L13.5003 15.8237C13.2459 15.6355 12.894 15.6601 12.6821 15.881C12.4612 16.1019 12.4367 16.4537 12.624 16.6992L12.7312 16.8055L16.454 19.7101C16.9121 20.0701 17.4677 20.2665 18.0494 20.2665C18.6295 20.2665 19.1949 20.0701 19.6522 19.7101L23.343 16.7565Z" fill="black" fill-opacity="0.5"/>
</svg>
